packages/design-assets/icons/16px/Pencil.svg

<svg width="16" height="16" xmlns="http://www.w3.org/2000/svg"><path d="M11.7.3c-.4-.4-1-.4-1.4 0l-10 10c-.2.2-.3.4-.3.7v4c0 .6.4 1 1 1h4c.3 0 .5-.1.7-.3l10-10c.4-.4.4-1 0-1.4l-4-4zM4.6 14H2v-2.6l6-6L10.6 8l-6 6zM12 6.6L9.4 4 11 2.4 13.6 5 12 6.6z" fill="#818F99" fill-rule="evenodd"/></svg>

<?xml version="1.0" encoding="UTF-8"?>
<svg width="16px" height="16px" viewBox="0 0 16 16" version="1.1" xmlns="http://www.w3.org/2000/svg" xmlns:xlink="http://www.w3.org/1999/xlink">
    <!-- Generator: Sketch 54.1 (76490) - https://sketchapp.com -->
    <title>Icons/16px/Pencil</title>
    <desc>Created with Sketch.</desc>
    <g id="Icons/16px/Pencil" stroke="none" stroke-width="1" fill="none" fill-rule="evenodd">
        <path d="M11.7,0.3 C11.3,-0.1 10.7,-0.1 10.3,0.3 L0.3,10.3 C0.1,10.5 0,10.7 0,11 L0,15 C0,15.6 0.4,16 1,16 L5,16 C5.3,16 5.5,15.9 5.7,15.7 L15.7,5.7 C16.1,5.3 16.1,4.7 15.7,4.3 L11.7,0.3 Z M4.6,14 L2,14 L2,11.4 L8,5.4 L10.6,8 L4.6,14 Z M12,6.6 L9.4,4 L11,2.4 L13.6,5 L12,6.6 Z" id="i-16-pencil" fill="#818F99"></path>
    </g>
</svg>
